X: 10
T: Headwood Crossing
R: jig
M: 6/8
L: 1/8
K: Cmaj
|:cGE ~G3|AGE GAB|cGE ~G3|A2d dcB|
cGE ~G3|AGE GAB|cde ~g3|eae ged:|
|:cde ~g3|ega ged|cde ged|cAG A2B|
cde ~g3|ega gab|~a3 ged|eae ged:|


